X: 4205
T: The DRAGOON
R: Jig
%R: jig
B: James Kerr "Merry Melodies" v.4 p.23 #205
Z: 2016 John Chambers <jc:trillian.mit.edu>
M: 6/8
L: 1/8
K: D
|:\
A3 f3 | ede fdB | ABA ABc | def edB |\
A3 f3 | ede fdB | ABA ABc | def (e2d) :|
|:\
g3 e3 | f3 d3 | BcB e2f | gfe dcB |\
A3 f3 | B3 g3 | ABA ABc | def (e2d) :|

%%sep 1 1 500
%%sep 1 1 500

